X: 17814
T: Hop Jig
R: slip jig
M: 9/8
K: Gminor
z|G2g G2A B3|G2g gfe d3|G2g G2A BAG|DGA B2A G2:|
F|B2B BAB c2c|F2F FGA B2c|d2B c2A BGg|DGA B2A G2:|

